src/assets/icons/icons/icon_brand-instagram.svg

<?xml version="1.0" encoding="utf-8"?>
<!-- Generator: Adobe Illustrator 28.1.0, SVG Export Plug-In . SVG Version: 6.00 Build 0)  -->
<svg version="1.1" id="Layer_1" xmlns="http://www.w3.org/2000/svg" xmlns:xlink="http://www.w3.org/1999/xlink" x="0px" y="0px"
	 viewBox="0 0 72 72" style="enable-background:new 0 0 72 72;" xml:space="preserve">
<g>
	<g>
		<circle cx="53.5" cy="18.5" r="3.5"/>
	</g>
	<g>
		<path d="M22,67.5h28c9.65,0,17.5-7.85,17.5-17.5V22c0-9.65-7.85-17.5-17.5-17.5H22C12.35,4.5,4.5,12.35,4.5,22v28
			C4.5,59.65,12.35,67.5,22,67.5z M11.5,22c0-5.79,4.71-10.5,10.5-10.5h28c5.79,0,10.5,4.71,10.5,10.5v28
			c0,5.79-4.71,10.5-10.5,10.5H22c-5.79,0-10.5-4.71-10.5-10.5V22z"/>
	</g>
	<g>
		<path d="M36,53.5c9.65,0,17.5-7.85,17.5-17.5c0-9.65-7.85-17.5-17.5-17.5S18.5,26.35,18.5,36C18.5,45.65,26.35,53.5,36,53.5z
			 M36,25.5c5.79,0,10.5,4.71,10.5,10.5S41.79,46.5,36,46.5S25.5,41.79,25.5,36S30.21,25.5,36,25.5z"/>
	</g>
</g>
</svg>

<?xml version="1.0" encoding="utf-8"?>
<!-- Generator: Adobe Illustrator 28.1.0, SVG Export Plug-In . SVG Version: 6.00 Build 0)  -->
<svg version="1.1" id="Layer_1" xmlns="http://www.w3.org/2000/svg" xmlns:xlink="http://www.w3.org/1999/xlink" x="0px" y="0px"
	 viewBox="0 0 72 72" style="enable-background:new 0 0 72 72;" xml:space="preserve">
<g>
	<path d="M50,4.5H22C12.35,4.5,4.5,12.35,4.5,22v28c0,9.65,7.85,17.5,17.5,17.5h28c9.65,0,17.5-7.85,17.5-17.5V22
		C67.5,12.35,59.65,4.5,50,4.5z M60.5,50c0,5.79-4.71,10.5-10.5,10.5H22c-5.79,0-10.5-4.71-10.5-10.5V22c0-5.79,4.71-10.5,10.5-10.5
		h28c5.79,0,10.5,4.71,10.5,10.5V50z"/>
	<path d="M36,18.5c-9.65,0-17.5,7.85-17.5,17.5c0,9.65,7.85,17.5,17.5,17.5S53.5,45.65,53.5,36C53.5,26.35,45.65,18.5,36,18.5z
		 M36,46.5c-5.79,0-10.5-4.71-10.5-10.5S30.21,25.5,36,25.5S46.5,30.21,46.5,36S41.79,46.5,36,46.5z"/>
	<circle cx="53.5" cy="18.5" r="3.5"/>
</g>
</svg>
